packages/core/src/svgs/tokens/mono/DVI.svg

<svg width="24" height="24" viewBox="0 0 24 24" fill="none" xmlns="http://www.w3.org/2000/svg">
<path fill-rule="evenodd" clip-rule="evenodd" d="M3.5212 2.1577C3.53352 2.1113 3.5612 2.07046 3.59973 2.04184C3.63825 2.01321 3.68536 1.99851 3.73332 2.00012H9.23624L20.3756 8.47279C20.4605 8.52126 20.4968 8.6243 20.4786 8.71521H20.4846L20.4726 8.7334C20.4615 8.76066 20.4451 8.7854 20.4241 8.80611L12.0181 22H6.25452L3.53332 2.30314C3.51751 2.26479 3.5133 2.22265 3.5212 2.18193L3.51514 2.1577H3.5212ZM6.72118 2.43041L6.88481 3.62435L9.31515 5.05464L8.95143 2.43041H6.72118ZM8.8424 18.0424L6.95754 4.16374L9.39391 5.59403L10.7272 15.1091L8.84848 18.0424H8.8424ZM8.93333 18.6969L9.2969 21.3515L11.1877 18.3818L10.8181 15.7637L8.93927 18.6969H8.93333ZM11.1757 15.2061L11.5393 17.8181L17.1756 8.94546H15.1938L11.1757 15.2061ZM15.206 8.51521C15.1964 8.50834 15.1862 8.50226 15.1756 8.49703L9.78181 5.32735L9.39999 2.59405L19.5937 8.51521H15.206ZM14.7938 8.76976L11.0787 14.5576L9.86666 5.87281L14.7938 8.76976Z" fill="white"/>
</svg>

<svg xmlns="http://www.w3.org/2000/svg" width="24" height="24" fill="none" viewBox="0 0 24 24">
    <path fill="#fff" fill-rule="evenodd" d="M3.521 2.158A.21.21 0 0 1 3.733 2h5.503l11.14 6.473a.23.23 0 0 1 .103.242h.006l-.012.018a.2.2 0 0 1-.049.073L12.018 22H6.255L3.533 2.303a.2.2 0 0 1-.012-.121l-.006-.024zm3.2.272.164 1.194 2.43 1.43-.364-2.624zm2.121 15.612L6.958 4.164l2.436 1.43 1.333 9.515-1.879 2.933zm.091.655.364 2.655 1.89-2.97-.369-2.618-1.879 2.933zm2.243-3.49.363 2.611 5.637-8.873h-1.982zm4.03-6.692-.03-.018-5.394-3.17L9.4 2.594l10.194 5.921zm-.412.255-3.715 5.788-1.212-8.685z" clip-rule="evenodd"/>
</svg>
